X:51
T:King of the Fairies
I:abc2nwc
M:4/4
L:1/8
K:G
|:E3/2D/2E3/2F/2 G3/2F/2G3/2A/2|B2B2G3A|
B2E2E3/2F/2  (3GFE|F3/2G/2F3/2E/2 D2B,2|
E3/2D/2E3/2F/2 G3/2F/2G3/2A/2|B3/2A/2G3/2B/2 d3c|
B2E2G3/2F/2E3/2D/2|E4E4:|
e2e2B3/2d/2e3/2f/2|g3/2a/2g3/2f/2 e3f|
e2B2B3/2A/2B3/2c/2|d3/2e/2d3/2c/2 B3/2c/2  (3dcB|
e2e2B3/2d/2e3/2f/2|g3/2a/2g3/2f/2 e3d|
B3/2d/2e3/2g/2 f3/2e/2  (3def|e4e3f|
g3e f3d|e3/2d/2B3/2c/2 d3e|d3/2B/2A3/2F/2 G3/2A/2B3/2c/2|
d3/2B/2A3/2F/2 G3/2F/2E3/2D/2|B,3/2E/2 E3/2D/2 E3/2F/2G3/2A/2|
B2e2e3/2d/2e3/2f/2|
e2B2B3/2A/2G3/2F/2|E4E4|]


